X:1006
T:Baille de Los Pollos (CT 076)
R:Panderu
C:Tradicional
S:Música Tradicional Asturiana, (C) Tello & Tito. Asturies, 2001.
S:http://pagina.de/MusTradAst <telloytito@asturies.org>
N:Canción de Baille de Los Pollos, dictada por Iluminada y Aurelia Martínez Viescas, de treinta y treinta y cinco años, respectivamente, de Llanuces, ayuntamiento de Quirós.
O:Llanuces (Quirós)
A:Asturies
Z:Cancioneru de Torner 076
M:2/4
L:1/8
Q:1/4=160
W:Algún día inoraba
W:lo que ahora veo;
W:las vueltas que da el mundo
W:¡válgame el cielo!
W:
W:Tres hojitas tiene, madre,
W:el arbolé:
W:la una en la caña,
W:las dos en el pie.
W:
W:Dábales el aire,
W:meneábanse,
W:meneábanse,
W:jaleánbanse.
K:C
B
|dd dd|dd dd|e2 c2|A3 A|cc cc|cc cc|d2 B2|G2 z2|
dd dd|dd dd|e2 c2|A4|cc cc|cc cc|d2 B2|G2 z2|
dd dd|dd dd|e2 c2|A2 Bc|d2 B2|G2 AB|c2 A2|G2 z2||


